packages/gui/src/assets/img/document-small.svg

<?xml version="1.0" encoding="UTF-8" standalone="no"?>
<svg
   width="49"
   height="64"
   viewBox="0 0 49 64"
   fill="none"
   version="1.1"
   id="svg1"
   xmlns="http://www.w3.org/2000/svg"
   xmlns:svg="http://www.w3.org/2000/svg">
  <defs
     id="defs1" />
  <path
     fill-rule="evenodd"
     clip-rule="evenodd"
     d="M 10.0842,22.0851 20.1069,-3.23439e-6 34.2218,19.7224 Z m 6.5067,-4.6567 4.2954,-9.46507 6.0493,8.45247 z m 20.0937,12.4384 c -3.3143,0 -6.001,2.6868 -6.001,6.0011 0,3.3143 2.6867,6.001 6.001,6.001 3.3143,0 6.001,-2.6867 6.001,-6.001 0,-3.3143 -2.6867,-6.0011 -6.001,-6.0011 z m -10.0017,6.0011 c 0,-5.5238 4.4779,-10.0018 10.0017,-10.0018 5.5238,0 10.0017,4.478 10.0017,10.0018 0,5.5238 -4.4779,10.0017 -10.0017,10.0017 -5.5238,0 -10.0017,-4.4779 -10.0017,-10.0017 z M 13.6805,46.4884 8.15328,49.6796 v 6.3823 l 5.52722,3.1911 5.5273,-3.1911 v -6.3823 z m 9.528,0.8814 -9.528,-5.501 -9.52791,5.501 v 11.0019 l 9.52791,5.501 9.528,-5.501 z M 24.8518,28.7167 2.73853,42.5649 0.618164,39.1724 22.7314,25.3242 Z M 27.6793,50.8965 46.3948,61.7542 48.4024,58.2937 29.6869,47.436 Z"
     fill="#3AAC59"
     id="path1"
     style="fill:#853aac;fill-opacity:1" />
</svg>

<svg width="100%" height="100%" viewBox="0 0 49 64" fill="none" xmlns="http://www.w3.org/2000/svg">
<path fill-rule="evenodd" clip-rule="evenodd" d="M10.0842 22.0851L20.1069 -3.23439e-06L34.2218 19.7224L10.0842 22.0851ZM16.5909 17.4284L20.8863 7.96333L26.9356 16.4158L16.5909 17.4284ZM36.6846 29.8668C33.3703 29.8668 30.6836 32.5536 30.6836 35.8679C30.6836 39.1822 33.3703 41.8689 36.6846 41.8689C39.9989 41.8689 42.6856 39.1822 42.6856 35.8679C42.6856 32.5536 39.9989 29.8668 36.6846 29.8668ZM26.6829 35.8679C26.6829 30.3441 31.1608 25.8661 36.6846 25.8661C42.2084 25.8661 46.6863 30.3441 46.6863 35.8679C46.6863 41.3917 42.2084 45.8696 36.6846 45.8696C31.1608 45.8696 26.6829 41.3917 26.6829 35.8679ZM13.6805 46.4884L8.15328 49.6796V56.0619L13.6805 59.253L19.2078 56.0619V49.6796L13.6805 46.4884ZM23.2085 47.3698L13.6805 41.8688L4.15259 47.3698V58.3717L13.6805 63.8727L23.2085 58.3717V47.3698ZM24.8518 28.7167L2.73853 42.5649L0.618164 39.1724L22.7314 25.3242L24.8518 28.7167ZM27.6793 50.8965L46.3948 61.7542L48.4024 58.2937L29.6869 47.436L27.6793 50.8965Z" fill="#3AAC59"/>
</svg>
